!!!ONB: MCCC : ILB0162_04 : Extracted Monophonic Melody
!!!COM: Beethoven, Ludwig van
!!!OPR: Piano Sonata No.1
!!!OMV: 4
!!!SCT: Op.2 No.1
!!!ODT: 1793///
**kern
*thru
*Ipiano
*>A
*clefG2
*k[b-e-a-d-]
*f:
*M2/2
*MM192
*>B
4ff
4ee
=2
4ff
4r
4ccc
4ccc
=3
4ccc
4r
4ff
4ee
=4
4ff
4r
4ccc
4ccc
=5
4ccc
4r
4ee-
4ee-
=6
4ee-
4aa-
4ee-
4ee-
=7
4ee-
4aa-
4ee-
4ee
=8
4ff
4gg
4aa-
4bb
=9
4ccc
4r
4cc
4cc
=10
4cc
4ff
4cc
4cc
=11
4cc
4ff
4cc
4cc
=12
4.aa-
8gg
8ff
8ee-
8dd
8cc
=13
4b
4r
4gg
4ff#
=14
4gg
4r
4bb
4bb
=15
4bb
4r
4gg
4ff#
=16
4gg
4r
4ddd
4ddd
=17
4ddd
4r
4fff
4fff
=18
4fff
4r
4fff
4fff
=19
4fff
4r
4fff
4r
=20
12fff
12eee-
12ddd
12ccc
12bb
12aa-
12gg
12ff
12ee-
12dd
12cc
12b
=21
12a-
12g
12f
12e-
12d
12c
4B
4r
=22
12r
12e-
12c
12a-
12e-
12c
*Xtuplet
12g
12e-
12c
12f#
12e-
12c
=23
12g
12e-
12c
12a-
12e-
12c
12g
12e-
12c
12f#
12e-
12c
=24
4g
12ee-
12cc
12a-
12ee-
12cc
12g
12ee-
12cc
12f#
=25
12ee-
12cc
12g
12ee-
12cc
12a-
12ee-
12cc
12g
12ee-
12cc
12f#
=26
4ee-
12aa-
12ee-
12cc
12aa-
12dd-
12cc
12gg
12dd-
12b-
=27
12gg
12cc
12b-
12ff
12cc
12a-
12ff
12dd
12g
12ee-
12cc
12g
=28
12dd
12b
12f
12cc
12g
12e-
12b
12a-
12d
12cc
12a
12e-
=29
12g
12e-
12c
12g
12e-
12c
12g
12d
12B
12g
12d
12B
=30
12c
12e-
12g
12cc
12a-
12e-
12cc
12a-
12d-
12b-
12g
12d-
=31
12b-
12g
12c
12a-
12f
12c
12g
12f
12d
12g
12e-
12c
=32
12a-
12B
12G
12e-
12c
12G
2r
=33
1r
=34
4c
4r
4ee-
4ee-
=35
4dd
4cc
4b-
4a-
=36
2g
4ccc
4ccc
=37
4bb-
4aa-
4gg
4ff
=38
2ee-
4gg
4gg
=39
4ff
4ee-
4dd
4cc
=40
2g
4g
4g
=41
2g
4g
4g
=42
4c
4r
4ee-
4ee-
=43
4dd
4cc
4b-
4a-
=44
2g
4ccc
4ccc
=45
4bb-
4aa-
4gg
4ff
=46
2ee-
4gg
4gg
=47
4ff
4ee-
4dd
4cc
=48
2g
4g
4g
=49
2g
4g
4g
=50
4c
12c
12e-
12g
4ccc
4bb
=51
4ccc
2.r
=52
4gg
12c
12e-
12g
4ccc
4bb
=53
4ccc
4r
4gg
4gg
=54
4gg
4r
4gg
4gg
=55
4gg
4r
4ee-
4r
=56
*>B1
4cc
4r
4b-
4r
=57
4a-
4r
*>B
4ff
4ee
=58
4ff
4r
4ccc
4ccc
=59
4ccc
4r
4ff
4ee
=60
4ff
4r
4ccc
4ccc
=61
4ccc
4r
4ee-
4ee-
=62
4ee-
4aa-
4ee-
4ee-
=63
4ee-
4aa-
4ee-
4ee
=64
4ff
4gg
4aa-
4bb
=65
4ccc
4r
4cc
4cc
=66
4cc
4ff
4cc
4cc
=67
4cc
4ff
4cc
4cc
=68
4.aa-
8gg
8ff
8ee-
8dd
8cc
=69
4b
4r
4gg
4ff#
=70
4gg
4r
4bb
4bb
=71
4bb
4r
4gg
4ff#
=72
4gg
4r
4ddd
4ddd
=73
4ddd
4r
4fff
4fff
=74
4fff
4r
4fff
4fff
=75
4fff
4r
4fff
4r
=76
12fff
12eee-
12ddd
12ccc
12bb
12aa-
12gg
12ff
12ee-
12dd
12cc
12b
=77
12a-
12g
12f
12e-
12d
12c
4B
4r
=78
12r
12e-
12c
12a-
12e-
12c
*Xtuplet
12g
12e-
12c
12f#
12e-
12c
=79
12g
12e-
12c
12a-
12e-
12c
12g
12e-
12c
12f#
12e-
12c
=80
4g
12ee-
12cc
12a-
12ee-
12cc
12g
12ee-
12cc
12f#
=81
12ee-
12cc
12g
12ee-
12cc
12a-
12ee-
12cc
12g
12ee-
12cc
12f#
=82
4ee-
12aa-
12ee-
12cc
12aa-
12dd-
12cc
12gg
12dd-
12b-
=83
12gg
12cc
12b-
12ff
12cc
12a-
12ff
12dd
12g
12ee-
12cc
12g
=84
12dd
12b
12f
12cc
12g
12e-
12b
12a-
12d
12cc
12a
12e-
=85
12g
12e-
12c
12g
12e-
12c
12g
12d
12B
12g
12d
12B
=86
12c
12e-
12g
12cc
12a-
12e-
12cc
12a-
12d-
12b-
12g
12d-
=87
12b-
12g
12c
12a-
12f
12c
12g
12f
12d
12g
12e-
12c
=88
12a-
12B
12G
12e-
12c
12G
2r
=89
1r
=90
4c
4r
4ee-
4ee-
=91
4dd
4cc
4b-
4a-
=92
2g
4ccc
4ccc
=93
4bb-
4aa-
4gg
4ff
=94
2ee-
4gg
4gg
=95
4ff
4ee-
4dd
4cc
=96
2g
4g
4g
=97
2g
4g
4g
=98
4c
4r
4ee-
4ee-
=99
4dd
4cc
4b-
4a-
=100
2g
4ccc
4ccc
=101
4bb-
4aa-
4gg
4ff
=102
2ee-
4gg
4gg
=103
4ff
4ee-
4dd
4cc
=104
2g
4g
4g
=105
2g
4g
4g
=106
4c
12c
12e-
12g
4ccc
4bb
=107
4ccc
2.r
=108
4gg
12c
12e-
12g
4ccc
4bb
=109
4ccc
4r
4gg
4gg
=110
4gg
4r
4gg
4gg
=111
4gg
4r
4ee-
4r
=112
*>B2
4cc
4r
2r
=113
4dd-
4r
4b-
4r
=114
4g
4r
2r
=115
*>C
1e-
=116
2a-
2cc
=117
2.ee-
4ee-
=118
4dd
4ee-
4ff
4ee-
=119
4ee-
4dd-
4r
4dd-
=120
4dd-
4cc
4r
4cc
=121
8cc
8b-
8dd-
8cc
8ee-
8dd-
8cc
8b-
=122
2a-
4cc
4b-
=123
2.b-
4cc
=124
4a-
4r
2r
=125
2.ee-
4ee-
=126
4gg
4aa-
4bb
4ccc
=127
4ddd
4eee-
4r
4eee-
=128
4ddd
4eee-
4fff
4eee-
=129
4eee-
4ddd-
4r
4ddd-
=130
4ddd-
4ccc
4r
4ccc
=131
8ccc
8bb-
8ddd-
8ccc
8eee-
8ddd-
8ccc
8bb-
=132
2aa-
4ccc
4bb-
=133
2.bb-
4ccc
=134
4aa-
4r
4r
4ee-
=135
4ff
4ff
4gg
4aa-
=136
4bb-
4gg
4ee-
4dd-
=137
2.ee-
4dd-
=138
4cc
4r
4r
4ee-
=139
8ee-
8ff
8ee-
8dd
8ee-
8ff
8gg
8aa-
=140
8aa
8bb-
8ccc
8bb-
8aa-
8gg
8ff
8ee-
=141
2ee-
2dd-
=142
4cc
4r
2r
=143
1ee-
=144
2aa-
2ccc
=145
4eee-
4ddd-
4r
4ddd-
=146
4ddd-
4ccc
4r
4ccc
=147
4ccc
4bb-
4fff
4eee-
=148
4eee-
4ddd-
4ccc
4bb-
=149
2.bb-
4ccc
=150
4aa-
4r
4r
4ee-
=151
4ee-
4ff
4gg
4aa-
=152
4bb-
4gg
4ee-
4dd-
=153
2.ee-
4dd-
=154
4cc
4r
4r
4ee-
=155
8ee-
8ff
8ee-
8dd
8ee-
8ff
8gg
8aa-
=156
8bb-
8bb
8ccc
8ddd-
8ddd-
8eee
8fff
8eee
=157
2eee-
2ddd-
=158
4ccc
4r
2r
=159
1ee-
=160
2aa-
2ccc
=161
4eee-
4ddd-
4r
4ddd-
=162
4ddd-
4ccc
4r
4ccc
=163
4ccc
4bb-
4fff
4eee-
=164
4eee-
4ddd-
4ccc
4bb-
=165
4aa-
4r
4cc
4b
=166
4cc
4r
4cc
4b
=167
1cc
=168
2.ccc
4cc
=169
4b-
4r
4b-
4a
=170
4b-
4r
4b-
4a
=171
1b-
=172
2.bb-
4b-
=173
4a-
4r
4a-
4g
=174
4a-
4r
4a-
4g
=175
1a-
=176
2.aa-
4a-
=177
2.aa-
4a-
=178
2.aa-
4a-
=179
2.aa-
4a-
=180
2.aa
4a
=181
2.bb-
4aa-
=182
4gg
4g
4ff
4f
=183
4ee
*tuplet
12c
12e
12g
*Xtuplet
12cc
12g
12e
12b
12a-
12f
=184
12cc
12g
12e
12c
12g
12e
12r
12g
12e
12r
12a-
12f
=185
4r
12c
12e
12g
12cc
12g
12e
12b
12a-
12f
=186
12cc
12g
12e
12c
12g
12e
12r
12g
12e
12r
12a-
12f
=187
2r
12dd-
12g
12e
12cc
12g
12e
=188
12dd-
12g
12e
12r
12dd-
12g
4dd-
12cc
12g
12e
=189
12dd-
12g
12e
12r
12g
12e
12dd-
12g
12e
12cc
12g
12e
=190
12dd-
12g
12e
12cc
12g
12e
12dd-
12g
12e
12cc
12g
12e
=191
12dd-
12g
12e
12cc
12g
12e
12dd-
12g
12e
12cc
12g
12e
=192
12dd-
12g
12e
12cc
12g
12e
12dd-
12g
12e
12cc
12g
12e
=193
12dd-
12g
12e
12cc
12g
12e
12dd-
12g
12e
12cc
12g
12e
=194
4f
4r
4ff
4ee
=195
4ff
4r
4ccc
4ccc
=196
4ccc
4r
4ff
4ee
=197
4ff
4r
4ccc
4ccc
=198
4ccc
4r
4ee-
4ee-
=199
4ee-
4aa-
4ee-
4ee-
=200
4ee-
4aa-
4ee-
4ee
=201
4ff
4gg
4aa-
4bb
=202
4ccc
4r
4cc
4cc
=203
4cc
4ff
8r
8ddd-
8ccc
8bb-
=204
8bb-
8aa-
8gg
8ff
4cc
4cc
=205
4cc
4ff
8r
8ddd-
8ccc
8bb-
=206
8bb-
8aa-
8gg
8ff
8r
8ddd-
8ccc
8bb-
=207
8bb-
8aa-
8gg
8ff
8ee-
8dd-
8cc
8b
=208
4cc
4r
4cc
4b
=209
4cc
4r
4ee
4ee
=210
4ee
4r
4cc
4b
=211
4cc
4r
4gg
4gg
=212
4gg
4r
4bb-
4bb-
=213
4bb-
4r
4bb-
4bb-
=214
4bb-
4r
4bb-
4r
=215
12bb-
12aa-
12gg
12ff
12ee
12dd-
12cc
12b-
12a-
12g
12f
12e
=216
12d-
12c
12B-
4r
4r
4r
=217
12r
12f
12a-
12d-
12f
12a-
12c
12f
12a-
12B
12f
12a-
=218
12c
12f
12a-
12d-
12f
12a-
12c
12f
12a-
12B
12f
12a-
=219
12c
12f
12a-
12dd-
12a-
12f
12cc
12a-
12f
12b
12a-
12f
=220
12cc
12a-
12f
12dd-
12a-
12f
12cc
12a-
12f
12b
12a-
12f
=221
12cc
12a-
12f
12ff
12a-
12f
12ff
12b-
12a-
12ee-
12b-
12g-
=222
12ee-
12cc
12f
12dd-
12b-
12f
12dd-
12b-
12e
12cc
12a-
12f
=223
12b-
12g
12c
12a-
12f
12c
12g
12d-
12B-
12f
12d
12A-
=224
12f
12c
12A-
12f
12c
12A-
12e
12c
12G
12e
12c
12G
=225
12f
12a-
12cc
12ff
12cc
12a-
12ff
12b-
12a-
12ee-
12b-
12g-
=226
12ee-
12cc
12f
12dd-
12b-
12f
12dd-
12b-
12e
12cc
12a-
12f
=227
12b-
12g
12c
12a-
12f
12c
12g
12d-
12B-
12f
12d
12A-
=228
12f
12c
12A-
12f
12c
12A-
12e
12c
12G
12e
12c
12G
=229
4f
4r
4aa-
4aa-
=230
4gg
4ff
4ee-
4dd-
=231
2cc
4ff
4ff
=232
4ee-
4dd-
4cc
4b-
=233
2a-
4ccc
4ccc
=234
4bb-
4aa-
4gg
4ff
=235
2cc
4cc
4cc
=236
2cc
4cc
4cc
=237
4f
4r
4aa-
4aa-
=238
4gg
4ff
4ee-
4dd-
=239
2cc
4ff
4ff
=240
4ee-
4dd-
4cc
4b-
=241
2a-
4ccc
4ccc
=242
4bb-
4aa-
4gg
4ff
=243
2cc
4cc
4cc
=244
2cc
4cc
4cc
=245
12f
12a-
12cc
12ff
12aa-
12ccc
12fff
12ccc
12aa-
12eee
12ddd-
12bb-
=246
12fff
12ccc
12aa-
12ff
12cc
12a-
12f
12a-
12cc
12e
12g
12cc
=247
12f
12a-
12cc
12ff
12aa-
12ccc
12fff
12ccc
12aa-
12eee
12ddd-
12bb-
=248
12fff
12ccc
12aa-
12ff
12cc
12a-
12f
12a-
12cc
12e
12g
12cc
=249
12f
12a-
12cc
12ff
12aa-
12ccc
12fff
12ccc
12aa-
12eee
12ddd-
12bb-
=250
12fff
12ccc
12aa-
12ff
12aa-
12ccc
12fff
12ccc
12aa-
12eee
12ddd-
12bb-
=251
12fff
12ccc
12aa-
12ff
12cc
12a-
12f
12c
12A-
4r
=252
1r
==
*-
